icons/svg/entertainment/leisure_common.svg

<?xml version="1.0" encoding="UTF-8" standalone="no"?>
<!-- Created with Inkscape (http://www.inkscape.org/) -->

<svg
   xmlns:dc="http://purl.org/dc/elements/1.1/"
   xmlns:cc="http://creativecommons.org/ns#"
   xmlns:rdf="http://www.w3.org/1999/02/22-rdf-syntax-ns#"
   xmlns:svg="http://www.w3.org/2000/svg"
   xmlns="http://www.w3.org/2000/svg"
   xmlns:sodipodi="http://sodipodi.sourceforge.net/DTD/sodipodi-0.dtd"
   xmlns:inkscape="http://www.inkscape.org/namespaces/inkscape"
   version="1.0"
   width="580"
   height="580"
   id="svg2"
   sodipodi:version="0.32"
   inkscape:version="0.91 r"
   sodipodi:docname="leisure_common.svg"
   inkscape:output_extension="org.inkscape.output.svg.inkscape">
  <metadata
     id="metadata10">
    <rdf:RDF>
      <cc:Work
         rdf:about="">
        <dc:format>image/svg+xml</dc:format>
        <dc:type
           rdf:resource="http://purl.org/dc/dcmitype/StillImage" />
        <cc:license
           rdf:resource="http://web.resource.org/cc/PublicDomain" />
        <dc:language>en</dc:language>
        <dc:title />
      </cc:Work>
    </rdf:RDF>
  </metadata>
  <sodipodi:namedview
     inkscape:window-height="1004"
     inkscape:window-width="1920"
     inkscape:pageshadow="2"
     inkscape:pageopacity="0.0"
     guidetolerance="10.0"
     gridtolerance="10.0"
     objecttolerance="10.0"
     borderopacity="1.0"
     bordercolor="#666666"
     pagecolor="#ffffff"
     id="base"
     showgrid="false"
     inkscape:zoom="0.25"
     inkscape:cx="1077.7258"
     inkscape:cy="385.71736"
     inkscape:window-x="1680"
     inkscape:window-y="0"
     inkscape:current-layer="svg2"
     showguides="true"
     inkscape:guide-bbox="true"
     inkscape:window-maximized="1" />
  <defs
     id="defs4">
    <inkscape:perspective
       sodipodi:type="inkscape:persp3d"
       inkscape:vp_x="0 : 290 : 1"
       inkscape:vp_y="0 : 1000 : 0"
       inkscape:vp_z="580 : 290 : 1"
       inkscape:persp3d-origin="290 : 193.33333 : 1"
       id="perspective12" />
    <style
       type="text/css"
       id="style6">
   
    .fil0 {fill:#EF7900}
   
  </style>
    <inkscape:perspective
       id="perspective6807"
       inkscape:persp3d-origin="29.116032 : 19.410688 : 1"
       inkscape:vp_z="58.232063 : 29.116032 : 1"
       inkscape:vp_y="0 : 1000 : 0"
       inkscape:vp_x="0 : 29.116032 : 1"
       sodipodi:type="inkscape:persp3d" />
    <inkscape:perspective
       id="perspective6954"
       inkscape:persp3d-origin="290 : 193.33333 : 1"
       inkscape:vp_z="580 : 290 : 1"
       inkscape:vp_y="0 : 1000 : 0"
       inkscape:vp_x="0 : 290 : 1"
       sodipodi:type="inkscape:persp3d" />
    <inkscape:perspective
       id="perspective2541"
       inkscape:persp3d-origin="240 : 160 : 1"
       inkscape:vp_z="480 : 240 : 1"
       inkscape:vp_y="0 : 1000 : 0"
       inkscape:vp_x="0 : 240 : 1"
       sodipodi:type="inkscape:persp3d" />
    <inkscape:perspective
       id="perspective2750"
       inkscape:persp3d-origin="215 : 143.33333 : 1"
       inkscape:vp_z="430 : 215 : 1"
       inkscape:vp_y="0 : 1000 : 0"
       inkscape:vp_x="0 : 215 : 1"
       sodipodi:type="inkscape:persp3d" />
    <inkscape:perspective
       id="perspective2830"
       inkscape:persp3d-origin="0.5 : 0.33333333 : 1"
       inkscape:vp_z="1 : 0.5 : 1"
       inkscape:vp_y="0 : 1000 : 0"
       inkscape:vp_x="0 : 0.5 : 1"
       sodipodi:type="inkscape:persp3d" />
    <inkscape:perspective
       id="perspective3648"
       inkscape:persp3d-origin="0.5 : 0.33333333 : 1"
       inkscape:vp_z="1 : 0.5 : 1"
       inkscape:vp_y="0 : 1000 : 0"
       inkscape:vp_x="0 : 0.5 : 1"
       sodipodi:type="inkscape:persp3d" />
    <inkscape:perspective
       id="perspective3675"
       inkscape:persp3d-origin="0.5 : 0.33333333 : 1"
       inkscape:vp_z="1 : 0.5 : 1"
       inkscape:vp_y="0 : 1000 : 0"
       inkscape:vp_x="0 : 0.5 : 1"
       sodipodi:type="inkscape:persp3d" />
    <inkscape:perspective
       id="perspective3736"
       inkscape:persp3d-origin="0.5 : 0.33333333 : 1"
       inkscape:vp_z="1 : 0.5 : 1"
       inkscape:vp_y="0 : 1000 : 0"
       inkscape:vp_x="0 : 0.5 : 1"
       sodipodi:type="inkscape:persp3d" />
  </defs>
  <g
     id="g1327">
    <path
       d="M 66.275,1.768 C 24.94,1.768 1.704,23.139 1.704,66.804 L 1.704,516.927 C 1.704,557.771 22.598,579.156 63.896,579.156 L 515.92,579.156 C 557.227,579.156 578.149,558.84 578.149,516.927 L 578.149,66.804 C 578.149,24.203 557.227,1.768 514.627,1.768 C 514.624,1.768 66.133,1.625 66.275,1.768 z"
       style="fill:#111111;stroke:#eeeeee;stroke-width:3.40799999"
       id="path1329" />
  </g>
  <g
     transform="matrix(1.4636569,0,0,1.4636569,-95.92396,-42.237854)"
     id="g3791-1"
     style="stroke:#ffffff;stroke-width:23.7142601;stroke-miterlimit:4;stroke-dasharray:none;stroke-opacity:1">
    <path
       sodipodi:nodetypes="cc"
       id="path3793-2"
       d="m 219.43574,376.07932 0.44048,-111.44093"
       style="fill:none;stroke:#ffffff;stroke-width:23.7142601;stroke-linecap:round;stroke-linejoin:round;stroke-miterlimit:4;stroke-dasharray:none;stroke-opacity:1"
       inkscape:connector-curvature="0" />
    <path
       sodipodi:nodetypes="cc"
       id="path3795-0"
       d="m 285.43186,303.02586 -35.23824,73.20461"
       style="fill:none;stroke:#ffffff;stroke-width:23.7142601;stroke-linecap:round;stroke-linejoin:round;stroke-miterlimit:4;stroke-dasharray:none;stroke-opacity:1"
       inkscape:connector-curvature="0" />
    <path
       sodipodi:nodetypes="cc"
       id="path3797-3"
       d="m 329.55523,332.03152 -43.16684,44.0478"
       style="fill:none;stroke:#ffffff;stroke-width:23.7142601;stroke-linecap:round;stroke-linejoin:round;stroke-miterlimit:4;stroke-dasharray:none;stroke-opacity:1"
       inkscape:connector-curvature="0" />
    <path
       sodipodi:nodetypes="cc"
       style="fill:none;stroke:#ffffff;stroke-width:23.7142601;stroke-linecap:round;stroke-linejoin:round;stroke-miterlimit:4;stroke-dasharray:none;stroke-opacity:1"
       d="m 159.34959,300.90874 30.39298,75.32173"
       id="path3799-8"
       inkscape:connector-curvature="0" />
    <path
       sodipodi:nodetypes="cc"
       style="fill:none;stroke:#ffffff;stroke-width:23.7142601;stroke-linecap:round;stroke-linejoin:round;stroke-miterlimit:4;stroke-dasharray:none;stroke-opacity:1"
       d="m 110.82144,333.35295 42.72636,42.72637"
       id="path3801-1"
       inkscape:connector-curvature="0" />
  </g>
  <path
     inkscape:connector-curvature="0"
     style="color:#000000;line-height:normal;font-family:'Bitstream Vera Sans';-inkscape-font-specification:'Bitstream Vera Sans';text-indent:0;text-align:start;text-transform:none;block-progression:tb;overflow:visible;fill:#ffffff;fill-opacity:1;stroke:none;enable-background:accumulate"
     d="m 402.12193,41.427281 c -76.78429,0 -139.27922,62.494809 -139.27922,139.279219 0,76.78428 62.49493,139.27921 139.27922,139.27921 76.78428,0 139.27922,-62.49493 139.27922,-139.27921 0,-76.78441 -62.49494,-139.279219 -139.27922,-139.279219 z m 42.07393,31.192738 c 43.3322,16.815412 73.99209,58.715701 73.99209,108.086481 0,3.77249 -0.37606,7.56495 -0.72542,11.24389 -27.03873,-36.2415 -75.80561,-43.88746 -75.80561,-43.88746 2.32132,3.48198 3.26435,7.03649 3.26435,10.51848 0,8.12462 -4.64264,15.01604 -11.6066,18.49802 16.11635,18.13091 33.08299,66.86493 38.80958,96.11717 -19.44628,14.7015 -43.67042,23.57591 -70.00232,23.57591 -15.38339,0 -30.10625,-2.93938 -43.52475,-8.34225 23.15923,-30.25887 54.58619,-84.82162 58.75842,-108.81188 -9.28529,-2.32133 -15.23367,-10.66357 -15.23367,-19.94886 0,-3.48198 1.01558,-6.74633 2.17624,-9.06765 -45.00448,4.18639 -86.03405,25.46512 -114.9779,57.6703 -2.1413,-8.8332 -3.26436,-18.0615 -3.26436,-27.56567 0,-47.31896 28.06314,-87.81381 68.55149,-105.910243 19.00523,14.243854 48.00398,47.801783 55.49407,67.463363 3.48198,-2.32132 8.41478,-4.35247 13.05743,-4.35247 3.48198,0 7.83445,0.94245 10.15577,3.26435 2.90595,-6.78045 11.50006,-41.614876 10.88119,-68.551481 z"
     overflow="visible"
     id="path4" />
</svg>

<svg width="580" height="580" viewBox="0 0 580 580" fill="none" xmlns="http://www.w3.org/2000/svg">
<g clip-path="url(#clip0)">
<path d="M66.2751 1.76802C24.9401 1.76802 1.7041 23.139 1.7041 66.804V516.927C1.7041 557.771 22.5981 579.156 63.8961 579.156H515.92C557.227 579.156 578.149 558.84 578.149 516.927V66.804C578.149 24.203 557.227 1.76802 514.627 1.76802C514.624 1.76802 66.1331 1.62502 66.2751 1.76802Z" fill="#111111" stroke="#EEEEEE" stroke-width="3.408"/>
<path d="M225.254 508.213L225.899 345.102" stroke="white" stroke-width="34.7095" stroke-linecap="round" stroke-linejoin="round"/>
<path d="M321.85 401.288L270.273 508.434" stroke="white" stroke-width="34.7095" stroke-linecap="round" stroke-linejoin="round"/>
<path d="M386.432 443.742L323.25 508.213" stroke="white" stroke-width="34.7095" stroke-linecap="round" stroke-linejoin="round"/>
<path d="M137.309 398.189L181.794 508.434" stroke="white" stroke-width="34.7095" stroke-linecap="round" stroke-linejoin="round"/>
<path d="M66.2805 445.677L128.817 508.213" stroke="white" stroke-width="34.7095" stroke-linecap="round" stroke-linejoin="round"/>
<path d="M402.122 41.4272C325.338 41.4272 262.843 103.922 262.843 180.706C262.843 257.491 325.338 319.986 402.122 319.986C478.906 319.986 541.401 257.491 541.401 180.706C541.401 103.922 478.906 41.4272 402.122 41.4272V41.4272ZM444.196 72.62C487.528 89.4354 518.188 131.336 518.188 180.706C518.188 184.479 517.812 188.271 517.463 191.95C490.424 155.709 441.657 148.063 441.657 148.063C443.978 151.545 444.921 155.099 444.921 158.581C444.921 166.706 440.279 173.597 433.315 177.079C449.431 195.21 466.398 243.944 472.124 273.197C452.678 287.898 428.454 296.772 402.122 296.772C386.739 296.772 372.016 293.833 358.597 288.43C381.756 258.171 413.183 203.609 417.356 179.618C408.07 177.297 402.122 168.955 402.122 159.669C402.122 156.188 403.138 152.923 404.298 150.602C359.294 154.788 318.264 176.067 289.32 208.272C287.179 199.439 286.056 190.211 286.056 180.706C286.056 133.388 314.119 92.8927 354.607 74.7962C373.613 89.0401 402.611 122.598 410.102 142.26C413.584 139.938 418.516 137.907 423.159 137.907C426.641 137.907 430.993 138.85 433.315 141.171C436.221 134.391 444.815 99.5566 444.196 72.62V72.62Z" fill="white"/>
</g>
<defs>
<clipPath id="clip0">
<path d="M0 0H580V580H0V0Z" fill="white"/>
</clipPath>
</defs>
</svg>
